src/components/stable/gux-icon/icons/cjv-outcome-achieved.svg

<svg viewBox="0 0 40 40" version="1.1" xmlns="http://www.w3.org/2000/svg" xmlns:xlink="http://www.w3.org/1999/xlink">
    <title>Outcome Achieved</title>
    <g stroke="none" stroke-width="1" fill="none" fill-rule="evenodd">
        <g id="cjv-outcome-achieved">
            <circle id="Oval" fill="#FFFFFF" cx="20" cy="20" r="20"/>
            <g id="cjv-outcome-achieved﻿" fill="#A1D318">
                <path d="M20,40 C31.0457,40 40,31.0457 40,20 C40,8.9543 31.0457,0 20,0 C8.9543,0 0,8.9543 0,20 C0,31.0457 8.9543,40 20,40 Z M18.4074,29.1819 L31.1465,16.0864 C32.2845,14.9166 32.2845,13.0473 31.1465,11.8774 C30.0084,10.7075 28.19,10.7075 27.052,11.8774 L16.3601,22.8684 L12.948,19.3608 C11.81,18.191 9.9916,18.191 8.8535,19.3608 C7.7155,20.5307 7.7155,22.4 8.8535,23.5699 L14.3129,29.1819 C14.8819,29.7669 15.5643,30 16.3601,30 C17.1559,30 17.8383,29.7669 18.4074,29.1819 Z" id="Shape"/>
            </g>
        </g>
    </g>
</svg>

<svg viewBox="0 0 40 40" xmlns="http://www.w3.org/2000/svg"><g fill="none" fill-rule="evenodd"><circle fill="#FFF" cx="20" cy="20" r="20"/><path d="M20 40c11.046 0 20-8.954 20-20S31.046 0 20 0 0 8.954 0 20s8.954 20 20 20zm-1.593-10.818l12.74-13.096a3.021 3.021 0 000-4.209 2.827 2.827 0 00-4.095 0L16.36 22.868l-3.412-3.507a2.827 2.827 0 00-4.095 0 3.021 3.021 0 000 4.209l5.46 5.612c.569.585 1.251.818 2.047.818.796 0 1.478-.233 2.047-.818z" fill="#A1D318"/></g></svg>
